<?xml version="1.0" encoding="UTF-8"?>
<map version="1.10" tiledversion="1.10.2" orientation="orthogonal" renderorder="right-down" width="15" height="15" tilewidth="32" tileheight="32" infinite="0" nextlayerid="4" nextobjectid="1">
 <tileset firstgid="1" name="rock" tilewidth="32" tileheight="32" tilecount="64" columns="8">
  <image source="tiles/rock.png" width="256" height="256"/>
 </tileset>
 <tileset firstgid="65" name="lava" tilewidth="32" tileheight="32" tilecount="16" columns="4">
  <image source="tiles/lava.png" width="128" height="128"/>
 </tileset>
 <layer id="1" name="Ground" width="15" height="15">
  <data encoding="csv">
1,1,1,1,1,1,1,1,1,1,1,1,1,1,1,
1,1,1,1,1,1,1,1,1,1,1,1,1,1,1,
1,1,1,1,1,1,1,1,1,1,1,1,1,1,1,
1,1,1,1,1,1,1,1,1,1,1,1,1,1,1,
1,1,1,1,1,1,1,1,1,1,1,1,1,1,1,
1,1,1,1,1,1,1,1,1,1,1,1,1,1,1,
1,1,1,1,1,1,1,1,1,1,1,1,1,1,1,
1,1,1,1,1,1,1,1,1,1,1,1,1,1,1,
1,1,1,1,1,1,1,1,1,1,1,1,1,1,1,
1,1,1,1,1,1,1,1,1,1,1,1,1,1,1,
1,1,1,1,1,1,1,1,1,1,1,1,1,1,1,
1,1,1,1,1,1,1,1,1,1,1,1,1,1,1,
1,1,1,1,1,1,1,1,1,1,1,1,1,1,1,
1,1,1,1,1,1,1,1,1,1,1,1,1,1,1,
1,1,1,1,1,1,1,1,1,1,1,1,1,1,1
</data>
 </layer>
 <layer id="2" name="Hazards" width="15" height="15">
  <data encoding="csv">
0,0,0,0,0,0,0,0,0,0,0,0,0,0,0,
0,65,66,67,68,0,0,0,0,0,65,66,67,68,0,
0,69,70,71,72,0,0,0,0,0,69,70,71,72,0,
0,73,74,75,76,0,0,0,0,0,73,74,75,76,0,
0,77,78,79,80,0,0,0,0,0,77,78,79,80,0,
0,0,0,0,0,0,0,0,0,0,0,0,0,0,0,
0,0,0,0,0,0,0,65,66,67,68,0,0,0,0,
0,0,0,0,0,0,0,69,70,71,72,0,0,0,0,
0,0,0,0,0,0,0,73,74,75,76,0,0,0,0,
0,0,0,0,0,0,0,77,78,79,80,0,0,0,0,
0,0,0,0,0,0,0,0,0,0,0,0,0,0,0,
0,65,66,67,68,0,0,0,0,0,65,66,67,68,0,
0,69,70,71,72,0,0,0,0,0,69,70,71,72,0,
0,73,74,75,76,0,0,0,0,0,73,74,75,76,0,
0,77,78,79,80,0,0,0,0,0,77,78,79,80,0
</data>
 </layer>
 <layer id="3" name="Collisions" width="15" height="15">
  <data encoding="csv">
1,1,1,1,1,1,1,1,1,1,1,1,1,1,1,
1,1,1,1,1,1,1,1,1,1,1,1,1,1,1,
1,1,1,1,1,1,1,1,1,1,1,1,1,1,1,
1,1,1,1,1,1,1,1,1,1,1,1,1,1,1,
1,1,1,1,1,1,1,1,1,1,1,1,1,1,1,
1,1,1,1,1,1,1,1,1,1,1,1,1,1,1,
1,1,1,1,1,1,1,0,0,0,0,1,1,1,1,
1,1,1,1,1,1,1,0,0,0,0,1,1,1,1,
1,1,1,1,1,1,1,0,0,0,0,1,1,1,1,
1,1,1,1,1,1,1,1,1,1,1,1,1,1,1,
1,1,1,1,1,1,1,1,1,1,1,1,1,1,1,
1,1,1,1,1,1,1,1,1,1,1,1,1,1,1,
1,1,1,1,1,1,1,1,1,1,1,1,1,1,1,
1,1,1,1,1,1,1,1,1,1,1,1,1,1,1,
1,1,1,1,1,1,1,1,1,1,1,1,1,1,1
</data>
 </layer>
</map>
